X:1
T:Title
%%score [ ( 1 2 ) 3 ( 4 5 ) ] { ( 6 7 ) | ( 8 9 ) }
L:1/8
Q:1/4=120
M:4/4
K:Bb
V:1 treble nm="Midi_74"
V:2 treble 
V:3 treble nm="Midi_74"
V:4 bass nm="Midi_74"
V:5 bass 
V:6 treble nm="Org."
V:7 treble 
V:8 bass 
V:9 bass 
V:1
 ([DB]6 [Ec]2) | ([Fd]2 [Ge]2) ([Ec]2 [Fd]2) | [DB]8 || [=EG]8 | ([FA]2 [GB]2) ([Ac]2 [Bd]2) | %5
 (c2 f2) (=e2 g2) | [Af]8 || ([Ac]6 [Bd]2) | ([ce]2 [Bd]2) ([ce]2 [Af]2) | [Bd]8 || [eg]8 | %11
 ([df]2 [ce]2) ([Bd]2 [ce]2) |"^John Camidge\n(1790-1859)" c4 f4 | [Bd]8 |] %14
V:2
 x8 | x8 | x8 || x8 | x8 | A4 B2 G2 | x8 || x8 | x8 | x8 || x8 | x8 | B4 A4 | x8 |] %14
V:3
 B,8 | B,4 A,4 | B,8 || B,8 | (A,2 B,2) (C2 D2) | C4 B,4 | A,8 || (E6 D2) | (C2 D2) (C2 E2) | D8 || %10
 E8 | (F2 E2) (D2 E2) | E4 E4 | D8 |] %14
V:4
 F,8 | F,4 F,4 | F,8 || (=E,6 G,2) | (F,2 G,2) (A,2 B,2) | A,4 G,4 | F,8 || (C6 B,2) | %8
 (A,2 B,2) (A,2 C2) | B,8 || B,8 | (D2 C2) (B,2 C2) | C4 C4 | B,8 |] %14
V:5
 B,,8 | B,,4 F,,4 | B,,8 || C,8 | F,,4 (F,,2 B,,2) | C,4 C,4 | F,,8 || F,8 | F,4 F,4 | B,,8 || %10
 B,,8 | (B,,2 F,2) (G,2 E,2) | F,4 F,,4 | B,,8 |] %14
V:6
 B6 c2 | d2 e2 c2 d2 | [DFB]8 || [B,C=EG]8 | A2 B2 c2 d2 | c2 f2 [B=e]2 [Gg]2 | [FAf]8 || %7
 [Ac]6 [Bd]2 | [ce]2 [Bd]2 [ce]2 [Af]2 | [Bd]8 || [eg]8 | f2 e2 d2 e2 | c4 f4 | [FBd]8 |] %14
V:7
 D6 E2 | F2 G2 E2 F2 | x8 || x8 | [A,CF]2 G2 A2 [FB]2 | [FA]4 [B=e]4 | x8 || x8 | x8 | x8 || x8 | %11
 [Bd]2 A2 B2 [Gc]2 | [FB]4 [FAc]4 | x8 |] %14
V:8
 x8 | x8 | x8 || x8 | x8 | x8 | x8 || x8 | x8 | F,8 || [E,,E,]8 | x8 | x8 | x8 |] %14
V:9
 [B,,B,]8 | [B,,B,]4 [F,,F,]4 | [B,,B,]8 || C,8 | [F,,F,]6 [B,,B,]2 | [C,C]4 [C,,C,]4 | [F,,F,]8 || %7
 [F,,F,]8 | [F,,F,]4 [F,,F,]4 | B,,8- || B,,8 | B,,2 [F,,F,]2 [G,,G,]2 [E,,E,]2 | %12
 [F,,F,]4 [F,,F,]4 | [B,,F,]8 |] %14

